X: 1
T: Polska efter Jnsagubben
O: Hlsingland, Sime
R: Polska
Z: Hkan Lidn, 2008-09-29
N: Upptecknad efter Johan August Trnblom, SL Hlsingland 613, Se ven Tulpans-Anders Musik/403|Brudpolska.
S: efter Olof Jonsson, Sime
M: 3/4
L: 1/8
K: Am
cB/A/ e2 e2 | a>g fe dc | B>c d2 G2 | g>f ed cB | 
E2 A>B c>A | B^G/B/ A4 :: c/d/c/B/ cd eg | ^fa  g2 G2- | G>B c2 BA |
^G>B e2 E2 - | E>a a/^g/a/b/ a2 | =g>f ed cB | E2 A>B c>A | B^G/B/ A4 :|]
